X: 10
T:Oyster girl 48
M:6/8
L:1/8
R:Jig
O:Ireland
K:G
d|\
ded B2G|A2F D2D|G2G BGB|d2c ABc|\
ded B2g|f2e c2e|ded cAF|G3 G2 ::
A|\
Bcd Bcd|e2c e2c|ABc ABc|d2B dBc|\
ded B2g|f2e c2e|ded cAF|G3 G2:|
B2c|ded B2d|g3g fg|a2AA2B| c3 A2B| cdc A2c| f3f e|e2d G2A|B3 B2c| ded B2
d| g3gfg|a2ba2g|e3e3|fgf e2d|c'2a f2e|ded e2 f|g3||
